dist/svg/u1F5F3.svg

<?xml version="1.0" encoding="UTF-8"?><svg id="a" xmlns="http://www.w3.org/2000/svg" viewBox="0 0 40 40"><rect x="0" y="0" width="40" height="40" fill="none"/><g><g><path d="M36.654,18.86h-3.224l-.63-1.365c-.763-1.653-2.418-2.712-4.239-2.712H11.439c-1.821,0-3.476,1.059-4.239,2.712l-.63,1.365H3.346v15.532h.017c.06,1.718,1.457,3.184,3.286,3.184h26.702c1.829,0,3.226-1.466,3.286-3.184h.017v-15.532Z" fill="#2085f7" fill-rule="evenodd"/><path d="M33.351,22.399H6.649c-2.157,0-3.734-2.035-3.197-4.123l3.749-8.121c.763-1.653,2.418-2.712,4.239-2.712H28.561c1.821,0,3.476,1.059,4.239,2.712l3.749,8.121c.537,2.089-1.04,4.123-3.197,4.123Z" fill="#64a7ff" fill-rule="evenodd"/></g><line x1="13.142" y1="14.333" x2="26.858" y2="14.333" fill="none" stroke="#3182f6" stroke-linecap="round" stroke-miterlimit="10" stroke-width="2.449"/><path d="M14.302,2.577h11.397c.64,0,1.159,.519,1.159,1.159V14.333H13.142V3.736c0-.64,.519-1.159,1.159-1.159Z" fill="#e2e5e8"/></g></svg>

<svg id="Layer_1" data-name="Layer 1" xmlns="http://www.w3.org/2000/svg" viewBox="0 0 40 40"><defs><style>.cls-1,.cls-4{fill:none;}.cls-2{fill:#2085f7;}.cls-2,.cls-3{fill-rule:evenodd;}.cls-3{fill:#64a7ff;}.cls-4{stroke:#3182f6;stroke-linecap:round;stroke-miterlimit:10;stroke-width:2.449px;}.cls-5{fill:#e2e5e8;}</style></defs><rect class="cls-1" width="40" height="40"/><path class="cls-2" d="M36.654,18.86H33.43L32.8,17.5a4.667,4.667,0,0,0-4.239-2.712H11.439A4.667,4.667,0,0,0,7.2,17.5L6.57,18.86H3.346V34.393h.017a3.292,3.292,0,0,0,3.286,3.184h26.7a3.292,3.292,0,0,0,3.286-3.184h.017Z"/><path class="cls-3" d="M33.351,22.4H6.649a3.3,3.3,0,0,1-3.2-4.123L7.2,10.155a4.669,4.669,0,0,1,4.239-2.712H28.561A4.669,4.669,0,0,1,32.8,10.155l3.748,8.121A3.3,3.3,0,0,1,33.351,22.4Z"/><line class="cls-4" x1="13.142" y1="14.333" x2="26.858" y2="14.333"/><path class="cls-5" d="M14.3,2.577H25.7a1.159,1.159,0,0,1,1.159,1.159v10.6a0,0,0,0,1,0,0H13.142a0,0,0,0,1,0,0V3.736A1.159,1.159,0,0,1,14.3,2.577Z"/></svg>
